X:1
T: Jan Ulrich Christian
N:
C:
S: Play  2  times
A:
O:
R:
M:4/4
K:D
I:speed 200
%W: A1
% voice 1 (1 lines, 44 notes)
K:D
M:4/4
L:1/16
d2 e2 |c2 B2 A2 G2 F4 d4 |c4 A4 e4 a4 |f4 e2 d2 e2 d2 c2 A2 |d4 A2 G2 F4 d4 |c4 A4 e4 a4 |f4 d4 f2 e2 d2 c2 |B2 ^G2 A2 B2 c6 B A |A12 d2 e2 |
%W: A2
% voice 1 (1 lines, 41 notes)
c2 B2 A2 G2 F4 d4 |c4 A4 e4 a4 |f4 e2 d2 e2 d2 c2 A2 |d4 A2 G2 F4 d4 |c4 A4 e4 a4 |f4 d4 f2 e2 d2 c2 |B2 ^G2 A2 B2 c6 B A |A12 e4 |
%W: B1
% voice 1 (1 lines, 37 notes)
A4 e4 f4 f4 |f6 c2 d4 c2 B2 |e6 f2 g2 c2 d2 B2 |^A4 F4 B4 F4 |c4 F4 d4 F4 |c4 F4 B4 c4 |d2 B2 e2 d2 c6 B2 |B8 d4 A2 G2 |
%W:
% voice 1 (1 lines, 35 notes)
F4 A4 B2 A2 B2 =c2 |B8 e4 B2 A2 |^G4 B4 c2 B2 c2 d2 |c4 e4 a4 e4 |f4 d4 e4 a4 |f4 d4 g4 f4 |e4 d4 d6 c2 |d12 c2 B2 |
%W: B2
% voice 1 (1 lines, 37 notes)
A4 e4 f4 f4 |f6 c2 d4 c2 B2 |e6 f2 g2 c2 d2 B2 |^A4 F4 B4 F4 |c4 F4 d4 F4 |c4 F4 B4 c4 |d2 B2 e2 d2 c6 B2 |B8 d4 A2 G2 |
%W:
% voice 1 (1 lines, 33 notes)
F4 A4 B2 A2 B2 =c2 |B8 e4 B2 A2 |^G4 B4 c2 B2 c2 d2 |c4 e4 a4 e4 |f4 d4 e4 a4 |f4 d4 g4 f4 |e4 d4 d6 c2 |d12 ||
